X:1
T:I Wonder as I Wander
Z:Collected by John Niles
F:http://www.folkinfo.org/songs
M:6/8
Q:100
L:1/8
K:C
z3z2E | AEA/A/cBA |
w:I won-der as I wan-der, out
GECD2E | AEAcBA |
w:un-der the sky, How Je-sus the Sa-vior did
cB3/2A/A2E | AEAcBA |
w:come for to die For poor on-'ry peop-ple like
cBAG2E | AEA/A/cez/A/ |
w:you and like I... I won-der as I wan-der, out
cAED3 || 
w:un-der the sky.